X:1
T:As Sylvie Was Walking
M:3/8
L:1/16
K:F
 D2| A2A2c-A|B-A G2A2| FED-EF-G| A4 D2| A2A2c-A|B-A G2A2| FED-EF-G|\
 A4 A2| d4 Ac| =B G- G2G2| c4 EG| F D- D2A2| d4 ef| d2c2A2| G2F2E2|\
 D4||
